X:1
T:Malgre moy vis
T:Malgre moy vis
T:Tielman Susato
C:Tielman Susato
%%score [ 1 [ 2 3 ] 4 ]
L:1/8
Q:1/4=80
M:2/2
K:C
V:1 treble nm="Superius" snm="S"
V:2 treble-8 nm="Tenor 1" snm="T 1"
V:3 treble-8 nm="Tenor 2" snm="T 2"
V:4 bass nm="Bassus" snm="B"
V:1
 z4 A4- | A2 A2 B4 | A8 | z4 z2 A2 | F2 G2 A4 | z2 E2 G2 A2 | c6 B2 | A4 z4 | z2 D2 F2 G2 | %9
w: Mal-|* gré moy|vis|et|en vi- vant,|et en vi-|vant, je|meurs,|et en vi-|
 _B2 A4 G2- | GF DE FECD | E2 D4 C2 | D4 z2 D2 | F3 E D4 | z2 A2 B2 A2 | F3 G A2 D2- | DE FG A4 | %17
w: vant je _|_ _ _ _ _ _ _ _||meurs, de|jour en jour,|de jour en|_ _ _ _|* * * * jour|
 z2 A2 d4- | d2 c2 B2 A2 | ^G2 A2 c3 B | A2 ^G2 A4- | A4 z2 c2 | c2 c2 B2 A2- | A2 c3 BGA | %24
w: se chan-|* gent mes dou-|leurs, se chan- gent|mes dou- leurs,|_ tant|qu'en vi- vant, trop|_ lon- gue mest la|
 B2 A2 z2 F2 | F2 F2 E2 F2 | G2 F2 D3 E | F2 E4 D2 | E4 z2 D2 | D2 C2 D4 | z2 E2 E2 D2 | E4 z4 | %32
w: vi- e, tant|qu'en vi- vant, trop|lon- gue mest la|vi- * *|e, mou-|rir je crains,|mou- rir je|crains,|
 A8 | A4 G4 | A2 c4 c2 | d3 c BA A2- | A2 G2 A4- | A4 z2 D2 | E2 F2 G4- | G2 FE ^F4 | z2 A2 A3 B | %41
w: mou-|rir je|crains et le|vi- vre men- * nuy-|* * e,|_ vi-|vre men- nuy-|* * * e,|ain- si me|
 c2 G2 B2 A2- | AG F4 ED | C2 D2 A,4 | z2 F4 E2 | D4 ^C2 E2 | E3 F G2 D2 | F2 E4 G2- | %48
w: tiens en pai- n'et|_ en lan- * *|* * gueurs,|et en|lan- gueurs, ain-|si me tiens en|pai- n'et en|
 GF DE F2 D2 | E4 F4- | F2 E2 D4 | ^C8 |] %52
w: _ _ lan- * gueurs, en|pai- n'et|_ en lan-|gueurs.|
V:2
 z8 | z8 | A6 B2 | c2 d2 e2 f2- | f2 e4 d2 | e2 z e e2 f2 | e2 A2 A2 B2 | d4 z4 | G2 _B2 c2 _e2 | %9
w: ||Mal- gré|moy _ _ _|_ _ _|vis, mal- gré moy|vis et en vi-|vant,|et en vi- vant|
"^b" d3 c A2 B2 | G2 d3 c AB | c2 A3 G A2 | F2 F2 G2 F2 | D2 A2 B2 A2 | A4 z4 | z4 z2 A2 | %16
w: je _ _ meurs,|et en vi- * *|vant je _ _|meurs, de jour en|jour, de jour en|jour,-|de|
 B2 A2 A4 | z4 d4 | f2 e2 d2 c2 | B2 e2 g3 f | e2 d2 cB AG | A2 f2 f2 f2 | e4 d2 f2- | fecd e2 e2 | %24
w: jour en jour|se|chan- gent mes dou-|leurs, se chan- gent|mes dou- * * * *|leurs, tant qu'en vi-|vant, trop lon-|* gue mest la vi- e,|
 d2 f3 e d2 | c2 d2 e2 d2 |"^b" z B d3 c A2- | AB c2 A2 d2 | d2 c2 d3 e | f2 e3 d d2 | %30
w: trop lon- gue mest|la vi- * e,|trop lon- gue mest|_ la vi- e, mou-|rir je crains, mou-|rir je _ _|
 e2 c2 A2 B2 | c3 B/A/ B4 | z2 e4 e2 | f2 e2 d2 d2 | c8 | z8 | z2 e4 e2 | f2 e2 d2 f2 | ed d4 c2 | %39
w: crains, mou- rir je|carins, _ _ _|et le|vi- vre men- nuy-|e,||et le|vi- vre men nuy-||
 d4 z2 d2 | d3 e f4 | c2 e2 d2 f2- | fe d2 c4 | z4 z2 A2 | A3 B c4 | G2 B2 A2 c2- | cB A2 G4 | %47
w: e, ain-|si me tiens|en pai- n'et en|_ _ lan- gueurs,|ain-|si me tiens|en pai- n'et en|_ _ lan- gueurs,|
 z4 z2 B2 | B3 c d2 A2 | c2 B2 d3 c | AB c2 A4 | A8 |] %52
w: ain-|si me tiens en|pai- n'et en _|_ _ _ lan-|gueurs.|
V:3
 A6 B2 | c2 d4 e2 | f2 ed e4 | c6 c2 | d4 c4 | z8 | A4 c2 d2 | f6 e2 | d4 z4 | z2 D2 F2 G2 | %10
w: Mal- gré|moy _ _|_ _ _ vis,|mal- gré|moy vis||et en vi-|vant je|meurs,|et en vi-|
"^b" B4 A4 | G2 F2 E4 | D4 z4 | z2 D2 G2 F2 | D4 z2 A2 | B2 A2 A2 A2 | d6 c2 | B2 A4 G2 | A4 z4 | %19
w: vant je|_ _ _|meurs,|de jour en|jour, de|jour en jour se|chan- gent|mes _ dou-|leurs,|
 z2 A2 e3 d | c2 B2 A4- | A8 | z4 z2 F2 | FG AB c2 c2 | B2 c2 d3 c | A2 B2 c2 A2 | G2 _B3 AFG | %27
w: se chan- gent|mes dou- leurs,|_|tant|qu'en _ _ _ _ vi-|vant, trop lon- gue|mest la vi- e,|trop lon gue mest la|
 AG GF/E/ F4 | E2 A2 F2 D2 | A3 G F4 | E4 F2 F2 | E2 A2 A2 G2 | A2 c4 c2 | d2 c2 B2 B2 | A2 e4 e2 | %35
w: vi- * * * * *|e, mou- rir je|crains, _ _|mou- rir je|crains, mou- rir je|crains, et le|vi- vre men- nuy-|e, et le|
 f3 e d2 c2 | B4 A2 c2- | c2 c2 d3 c | B2 A4 G2 | A8- | A8 | z8 | A2 A3 B c2 | G2 B2 A2 D2- | %44
w: vi- vre men- nuy-|* e, et|_ le vi- vre|men- nuy- *|e,|_||ain- si me tiens|en pai- n'et en|
 DE F2 G4 | z8 | z2 c4 B2 | A2 G3 FED | E2 G2 A2 A2 | G2 E2 AG FE | D2 E2 F2 D2 | E8 |] %52
w: _ _ lan- gueurs,||et en|lan- * * * *|gueurs, ain- si me|tiens en pai- * * *|* n'et en lan-|gueurs.|
V:4
 z8 | z8 | z4 A,,4- | A,,2 B,,2 C,2 D,2- | D,2 E,2 F,4 | E,4 z4 | z8 |"^#" D,4 F,2 G,2 | %8
w: ||Mal-|* gré moy _|_ _ _|vis,||et en vi-|
"^b" B,4 A,2 G,2- | G,2 F,E, D,2 G,,2 | G,,A,, _B,,C, D,E, F,2 | C,2 D,2 A,,4 | z2 D,2 E,2 D,2 | %13
w: vant je meurs,|_ _ _ _ et|en _ _ _ _ _ vi-|vant je meurs,|de jour en|
 D,4 z4 | z2 D,2 G,2 F,2 | D,8 | D,4 F,3 E, | D,2 C,2 B,,4 | A,,4 z4 | z8 | z8 | z2 F,2 F,G, A,B, | %22
w: jour,|de jour en|jour|se chan- gent|mes _ dou-|leurs,|||tant qu'en _ _ _|
 C2 C2 G,2 D,2 | F,3 E, C,D, E,F, | G,2 F,2 D,2 D,2 | F,2 D,2 C,2 D,2 | E,2 D,2 z2 D,2 | %27
w: _ vi- vant, trop|lon gue mest _ _ _|la vi- e, trop|lon- gue mest la|vi- e, mou-|
 D,2 C,2 D,4 | A,,4 _B,,2 B,,2 | A,,4 z2 D,2 | D,2 C,2 D,4 | A,,4 E,2 E,2 | A,,8 | z8 | %34
w: rir je crains,|mou- rir je|crains, mou-|rir je crains,|mou- rir je|crains,||
 z2 A,4 A,2 | D,2 D,2 G,2 A,2 | E,4 z2 A,2- | A,2 A,2 B,3 A, | G,2 F,2 E,4 | D,8- | D,8 | %41
w: et le|vi- vre men- nuy-|e, et|_ le vi- vre|men- nuy- *|e,|_|
 z4 z2 D,2 | D,3 E, F,2 C,2 | E,2 D,4 F,2- | F,E, D,2 C,4 | z8 | z8 | z2 E,2 E,3 F, | G,4 D,2 F,2 | %49
w: ain-|si me tiens en|pai- n'et en|_ _ lan- gueurs,|||ain- si me|tiens en pai-|
 E,4 D,4- | D,2 C,2 D,4 | A,,8 |] %52
w: n'et en|_ _ lan-|gueurs.|

